!!!OTL: Git Along, Little Dogies
!!!ARE: United States of America
!!!ONB: Traditional Cowboy Song
!!!AMD: Pentatonic
**kern
*clefG2
*k[b-]
*M6/8
*MM80
{8c/
=1
8.f/L
16g/k
8a/J
8cc/L
8a/
8f/J
=2
8.g/L
16f/k
8g/J
8d/L
8c/}
{8c/J
=3
8.f/L
16g/k
8a/J
8cc/L
8a/
8f/J
=4
8.g/L
16f/k
8g/J
4d/}
{8c/
=5
8.f/L
16g/k
8a/J
8cc/L
8a/
8f/J
=6
8.g/L
16f/k
8g/J
8d/L
8c/}
{8c/J
=7
8.f/L
16g/k
8a/J
8cc/L
8a/
8f/J
=8
8.g/L
16f/k
8g/J
4f/}
=||
!! Refrain
{16cc\LL
16cc\JJ
=10
4cc\
8dd\
(8cc\L
8a\J)
16f/LL
16f/JJ
=11
8g/L
8f/
8d/J
8d/L
8c/}
{8c/J
=12
4f/
8g/
8a\L
8cc\
8dd\J
=13
8cc/L
8a/
8f/J
4g/}
{16cc\LL
16cc\JJ
=14
4cc\
8dd\
(8cc\L
8a\J)
16f/LL
16f/JJ
=15
8g/L
8f/
8d/J
8d/L
8c/}
{8c/J
=16
8f/L
8g/
8a/J
8cc/L
8a/
8f/J
=17
8.g/L
16f/k
8g/J
4f/}
==
*-
